icons/tiktok.svg

<svg fill="none" height="37" viewBox="0 0 37 37" width="37" xmlns="http://www.w3.org/2000/svg"><g clip-rule="evenodd" fill-rule="evenodd"><path d="m8.70043 4.51953h19.73177c2.0409 0 3.6953 1.65442 3.6953 3.69457v19.7317c0 2.0409-1.6544 3.6954-3.6946 3.6954h-19.73247c-2.04015 0-3.69457-1.6545-3.69457-3.6946v-19.7325c0-2.04015 1.65442-3.69457 3.69457-3.69457z" fill="#212121"/><path d="m22.4912 15.5258c1.1873.8483 2.6421 1.347 4.2129 1.347v-3.0218c-.2976 0-.5937-.0309-.8845-.0927v2.3785c-1.5708 0-3.0248-.4995-4.2129-1.3471v6.1657c0 3.0843-2.502 5.5848-5.5878 5.5848-1.1512 0-2.2217-.3481-3.1107-.9448 1.0148 1.0367 2.4296 1.6801 3.9952 1.6801 3.0858 0 5.5878-2.5005 5.5878-5.5848zm1.0916-3.0482c-.6064-.6622-1.005-1.5188-1.0916-2.4658v-.38875h-.8385c.2109 1.20315.9311 2.23155 1.9301 2.85455zm-8.7226 10.7515c-.339-.4445-.5221-.9877-.5213-1.5467 0-1.4111 1.1444-2.5547 2.5562-2.5547.2629 0 .5243.0399.7752.1198v-3.0889c-.2931-.0399-.5884-.0573-.8845-.0512v2.404c-.2508-.0799-.5123-.1198-.7759-.1198-1.4119 0-2.5563 1.1436-2.5563 2.5547.0008.9983.5726 1.8624 1.4066 2.2828z" fill="#ec407a"/><path d="m21.606 14.7897c1.1874.8483 2.6421 1.3471 4.2129 1.3471v-2.3785c-.8769-.1868-1.6529-.6449-2.2367-1.2815-.999-.623-1.7185-1.6506-1.9294-2.85375h-2.2022v12.06765c-.0052 1.4065-1.1474 2.5456-2.5562 2.5456-.8302 0-1.5678-.3955-2.0349-1.008-.8339-.4204-1.4058-1.2845-1.4058-2.282 0-1.4111 1.1444-2.5547 2.5563-2.5547.2704 0 .5311.0422.7759.1198v-2.4033c-3.0316.0626-5.4695 2.5382-5.4695 5.5833 0 1.5203.6072 2.8983 1.5926 3.9048.889.5967 1.9596.9447 3.1107.9447 3.0859 0 5.5879-2.5005 5.5879-5.5848z" fill="#fff"/><path d="m25.8201 13.7588v-.6434c-.791.0015-1.5655-.22-2.2367-.6388.5936.6501 1.3756 1.0984 2.2367 1.2822zm-4.1669-4.13603c-.0203-.11527-.0354-.23053-.0459-.34731v-.38874h-3.0407v12.06838c-.0045 1.4065-1.1474 2.5457-2.5562 2.5457-.4136 0-.8038-.098-1.1496-.2728.467.6125 1.2046 1.008 2.0348 1.008 1.4088 0 2.551-1.1391 2.5562-2.5456v-12.06763zm-4.8668 6.48513v-.6849c-.2539-.0346-.51-.052-.767-.052-3.0865 0-5.5878 2.5005-5.5878 5.5848 0 1.934.9832 3.6381 2.4771 4.6401-.9854-1.0065-1.5926-2.3844-1.5926-3.9048 0-3.0451 2.4387-5.5207 5.4703-5.5832z" fill="#81d4fa"/></g></svg>

<svg width="37" height="37" viewBox="0 0 37 37" fill="none" xmlns="http://www.w3.org/2000/svg">
<path fill-rule="evenodd" clip-rule="evenodd" d="M8.70043 4.51953H28.4322C30.4731 4.51953 32.1275 6.17395 32.1275 8.2141V27.9458C32.1275 29.9867 30.4731 31.6412 28.4329 31.6412H8.70043C6.66028 31.6412 5.00586 29.9867 5.00586 27.9466V8.2141C5.00586 6.17395 6.66028 4.51953 8.70043 4.51953Z" fill="#212121"/>
<path fill-rule="evenodd" clip-rule="evenodd" d="M22.4912 15.5258C23.6785 16.3741 25.1333 16.8728 26.7041 16.8728V13.851C26.4065 13.851 26.1104 13.8201 25.8196 13.7583V16.1368C24.2488 16.1368 22.7948 15.6373 21.6067 14.7897V20.9554C21.6067 24.0397 19.1047 26.5402 16.0189 26.5402C14.8677 26.5402 13.7972 26.1921 12.9082 25.5954C13.923 26.6321 15.3378 27.2755 16.9034 27.2755C19.9892 27.2755 22.4912 24.775 22.4912 21.6907V15.5258ZM23.5828 12.4776C22.9764 11.8154 22.5778 10.9588 22.4912 10.0118V9.62305H21.6527C21.8636 10.8262 22.5838 11.8546 23.5828 12.4776ZM14.8602 23.2291C14.5212 22.7846 14.3381 22.2414 14.3389 21.6824C14.3389 20.2713 15.4833 19.1277 16.8951 19.1277C17.158 19.1277 17.4194 19.1676 17.6703 19.2475V16.1586C17.3772 16.1187 17.0819 16.1013 16.7858 16.1074V18.5114C16.535 18.4315 16.2735 18.3916 16.0099 18.3916C14.598 18.3916 13.4536 19.5352 13.4536 20.9463C13.4544 21.9446 14.0262 22.8087 14.8602 23.2291Z" fill="#EC407A"/>
<path fill-rule="evenodd" clip-rule="evenodd" d="M21.606 14.7897C22.7934 15.638 24.2481 16.1368 25.8189 16.1368V13.7583C24.942 13.5715 24.166 13.1134 23.5822 12.4768C22.5832 11.8538 21.8637 10.8262 21.6528 9.62305H19.4506V21.6907C19.4454 23.0972 18.3032 24.2363 16.8944 24.2363C16.0642 24.2363 15.3266 23.8408 14.8595 23.2283C14.0256 22.8079 13.4537 21.9438 13.4537 20.9463C13.4537 19.5352 14.5981 18.3916 16.01 18.3916C16.2804 18.3916 16.5411 18.4338 16.7859 18.5114V16.1081C13.7543 16.1707 11.3164 18.6463 11.3164 21.6914C11.3164 23.2117 11.9236 24.5897 12.909 25.5962C13.798 26.1929 14.8686 26.5409 16.0197 26.5409C19.1056 26.5409 21.6076 24.0404 21.6076 20.9561L21.606 14.7897Z" fill="white"/>
<path fill-rule="evenodd" clip-rule="evenodd" d="M25.8201 13.7588V13.1154C25.0291 13.1169 24.2546 12.8954 23.5834 12.4766C24.177 13.1267 24.959 13.575 25.8201 13.7588ZM21.6532 9.62277C21.6329 9.5075 21.6178 9.39224 21.6073 9.27546V8.88672H18.5666V20.9551C18.5621 22.3616 17.4192 23.5008 16.0104 23.5008C15.5968 23.5008 15.2066 23.4028 14.8608 23.228C15.3278 23.8405 16.0654 24.236 16.8956 24.236C18.3044 24.236 19.4466 23.0969 19.4518 21.6904V9.62277H21.6532ZM16.7864 16.1079V15.423C16.5325 15.3884 16.2764 15.371 16.0194 15.371C12.9329 15.371 10.4316 17.8715 10.4316 20.9558C10.4316 22.8898 11.4148 24.5939 12.9087 25.5959C11.9233 24.5894 11.3161 23.2115 11.3161 21.6911C11.3161 18.646 13.7548 16.1704 16.7864 16.1079Z" fill="#81D4FA"/>
</svg>
